static/assets/head_icons_png/man/bizi/1028406.svg

<svg xmlns="http://www.w3.org/2000/svg" width="6" height="9"><g transform="translate(-67.45 -30.3)"><radialGradient id="a" gradientUnits="userSpaceOnUse" gradientTransform="matrix(.00145 0 0 .0022 70.05 38.35)" spreadMethod="pad" cx="0" cy="0" r="819.2" fx="0" fy="0"><stop offset="0" stop-color="#f39b61"/><stop offset="1" stop-color="#f8be98"/></radialGradient><path d="M72.05 36.75l.4-.45q-.75-.05-1.2-.75l.15.5v.2l.1.7-.6-1.35-.1-3.95q.35-.85 1.2-1.35l.7.25q-1.35 1.15-1.45 1.55l-.1.65.05.2v.1q0 1.85.8 2.6l.05.05.05.05q.9.6.9 1.45l-.15.45-.2.3h-.05q-.4.15-.65.4-.8.55-1.5.55l-1.2-.25-.4-.15-.35-.15q-.75-.4-1.05-.85l.45-.25.35.15.45.25.15.05.3.15.05.05h.05l.5.2.9-.05.5-.35q1.1 0 1.1-.8l-.2-.15" fill="url(#a)"/><radialGradient id="b" gradientUnits="userSpaceOnUse" gradientTransform="matrix(.00478 0 0 .00777 72.5 35)" spreadMethod="pad" cx="0" cy="0" r="819.2" fx="210473" fy="0"><stop offset=".337" stop-color="#f9c29f"/><stop offset="1" stop-color="#fedec1" stop-opacity="0"/></radialGradient><path d="M72.25 36.9q0 .8-1.1.8l-.5.35-.9.05-.5-.2.5.05q.7-.05.85-.45l.15-.75-.05-.45-.3-.75v-.4l.2-1.3-.15-1.4-.05-.1v-.45l.7-1.15.9-.45q-.85.5-1.2 1.35l.1 3.95.6 1.35-.05.25h.15l.4-.45h.05l.2.15" fill="url(#b)"/><radialGradient id="c" gradientUnits="userSpaceOnUse" gradientTransform="translate(71.7 36.75) scale(.00157)" spreadMethod="pad" cx="0" cy="0" r="819.2" fx="0" fy="0"><stop offset="0" stop-color="#f39b61"/><stop offset="1" stop-color="#f8be98"/></radialGradient><path d="M71.4 36.25v-.2l-.15-.5q.45.7 1.2.75l-.4.45H72l-.4.45h-.15l.05-.25-.1-.7" fill="url(#c)"/><radialGradient id="d" gradientUnits="userSpaceOnUse" gradientTransform="matrix(.00113 .00005 -.00005 .00252 69.85 33.8)" spreadMethod="pad" cx="0" cy="0" r="819.2" fx="0" fy="0"><stop offset=".314" stop-color="#fff" stop-opacity=".431"/><stop offset="1" stop-color="#fff" stop-opacity="0"/></radialGradient><path d="M70.4 35.15l-.05.15-.1.3-.05.05-.3.25-.35-.3-.05-.05-.15-.3q-.2-.65-.15-1.45 0-.9.25-1.45.15-.6.45-.55.3 0 .5.55l.05.1.15 1.4-.2 1.3" fill="url(#d)"/><radialGradient id="e" gradientUnits="userSpaceOnUse" gradientTransform="matrix(.00102 .00006 -.00006 .00096 69.95 36.7)" spreadMethod="pad" cx="0" cy="0" r="819.2" fx="0" fy="0"><stop offset=".314" stop-color="#fff" stop-opacity=".431"/><stop offset="1" stop-color="#fff" stop-opacity="0"/></radialGradient><path d="M69.15 36.4l.15-.15q.25-.25.65-.2l.6.2.15.6-.25.55-.6.25q-.35-.05-.6-.35l-.1-.1-.15-.45.15-.35" fill="url(#e)"/><radialGradient id="f" gradientUnits="userSpaceOnUse" gradientTransform="matrix(.0061 .00063 -.00026 .00246 70.2 38.45)" spreadMethod="pad" cx="0" cy="0" r="819.2" fx="0" fy="0"><stop offset="0" stop-color="#cc8051"/><stop offset="1" stop-color="#f8be98"/></radialGradient><path d="M68.3 37.85h.3q.35 0 .65.3l.25.2v.1l-.4-.1-.45-.2-.4-.25.05-.05" fill="url(#f)"/><radialGradient id="g" gradientUnits="userSpaceOnUse" gradientTransform="matrix(.00342 0 0 .00249 70.05 38.35)" spreadMethod="pad" cx="0" cy="0" r="819.2" fx="0" fy="0"><stop offset="0" stop-color="#cc8051"/><stop offset="1" stop-color="#f8be98"/></radialGradient><path d="M72.05 37.85l-.6.35-.45.1-.35.15-.6.15-.55-.1v-.1l.45.05h.4l.3-.05q.05-.1.2-.15.3-.3.75-.4h.45" fill="url(#g)"/><radialGradient id="h" gradientUnits="userSpaceOnUse" gradientTransform="matrix(.00227 0 0 .00317 71.2 34.4)" spreadMethod="pad" cx="0" cy="0" r="819.2" fx="210473" fy="0"><stop offset=".337" stop-color="#f9c29f"/><stop offset="1" stop-color="#fedec1" stop-opacity="0"/></radialGradient><path d="M71.15 32.65l1.8 2.2q-.1.8-.8 1.3l-.1-.05q-.85-1-.85-3.3l-.05-.15" fill="url(#h)"/></g></svg>

<?xml version="1.0" encoding="utf-8"?>
<svg version="1.1" id="Layer_1"
xmlns="http://www.w3.org/2000/svg"
xmlns:xlink="http://www.w3.org/1999/xlink"
xmlns:author="http://www.sothink.com"
width="6px" height="9px"
xml:space="preserve">
<g id="476" transform="matrix(1, 0, 0, 1, -67.45, -30.3)">
<radialGradient
id="RadialGradID_4110" gradientUnits="userSpaceOnUse" gradientTransform="matrix(0.00144958, 0, 0, 0.00219727, 70.05, 38.35)" spreadMethod ="pad" cx="0" cy="0" r="819.2" fx="0" fy="0" >
<stop  offset="0"  style="stop-color:#F39B61;stop-opacity:1" />
<stop  offset="1"  style="stop-color:#F8BE98;stop-opacity:1" />
</radialGradient>
<path style="fill:url(#RadialGradID_4110) " d="M72.05,36.75L72.45 36.3Q71.7 36.25 71.25 35.55L71.4 36.05L71.4 36.25L71.5 36.95L70.9 35.6L70.8 31.65Q71.15 30.8 72 30.3L72.7 30.55Q71.35 31.7 71.25 32.1L71.15 32.75L71.2 32.95L71.2 33.05Q71.2 34.9 72 35.65L72.05 35.7L72.1 35.75Q73 36.35 73 37.2L72.85 37.65L72.65 37.95L72.6 37.95Q72.2 38.1 71.95 38.35Q71.15 38.9 70.45 38.9L69.25 38.65L68.85 38.5L68.5 38.35Q67.75 37.95 67.45 37.5L67.9 37.25L68.25 37.4L68.7 37.65L68.85 37.7L69.15 37.85L69.2 37.9L69.25 37.9L69.75 38.1L70.65 38.05L71.15 37.7Q72.25 37.7 72.25 36.9L72.05 36.75" />
<radialGradient
id="RadialGradID_4111" gradientUnits="userSpaceOnUse" gradientTransform="matrix(0.004776, 0, 0, 0.00776672, 72.5, 35)" spreadMethod ="pad" cx="0" cy="0" r="819.2" fx="210473" fy="0" >
<stop  offset="0.337255"  style="stop-color:#F9C29F;stop-opacity:1" />
<stop  offset="1"  style="stop-color:#FEDEC1;stop-opacity:0" />
</radialGradient>
<path style="fill:url(#RadialGradID_4111) " d="M72.25,36.9Q72.25 37.7 71.15 37.7L70.65 38.05L69.75 38.1L69.25 37.9L69.75 37.95Q70.45 37.9 70.6 37.5L70.75 36.75L70.7 36.3L70.4 35.55L70.4 35.15L70.6 33.85L70.45 32.45L70.4 32.35L70.4 31.9L71.1 30.75L72 30.3Q71.15 30.8 70.8 31.65L70.9 35.6L71.5 36.95L71.45 37.2L71.6 37.2L72 36.75L72.05 36.75L72.25 36.9" />
<radialGradient
id="RadialGradID_4112" gradientUnits="userSpaceOnUse" gradientTransform="matrix(0.00157166, 0, 0, 0.00157166, 71.7, 36.75)" spreadMethod ="pad" cx="0" cy="0" r="819.2" fx="0" fy="0" >
<stop  offset="0"  style="stop-color:#F39B61;stop-opacity:1" />
<stop  offset="1"  style="stop-color:#F8BE98;stop-opacity:1" />
</radialGradient>
<path style="fill:url(#RadialGradID_4112) " d="M71.4,36.25L71.4 36.05L71.25 35.55Q71.7 36.25 72.45 36.3L72.05 36.75L72 36.75L71.6 37.2L71.45 37.2L71.5 36.95L71.4 36.25" />
<radialGradient
id="RadialGradID_4113" gradientUnits="userSpaceOnUse" gradientTransform="matrix(0.00112915, 4.57764e-005, -4.57764e-005, 0.0025177, 69.85, 33.8)" spreadMethod ="pad" cx="0" cy="0" r="819.2" fx="0" fy="0" >
<stop  offset="0.313725"  style="stop-color:#FFFFFF;stop-opacity:0.431373" />
<stop  offset="1"  style="stop-color:#FFFFFF;stop-opacity:0" />
</radialGradient>
<path style="fill:url(#RadialGradID_4113) " d="M70.4,35.15L70.35 35.3L70.25 35.6L70.2 35.65L69.9 35.9L69.55 35.6L69.5 35.55L69.35 35.25Q69.15 34.6 69.2 33.8Q69.2 32.9 69.45 32.35Q69.6 31.75 69.9 31.8Q70.2 31.8 70.4 32.35L70.45 32.45L70.6 33.85L70.4 35.15" />
<radialGradient
id="RadialGradID_4114" gradientUnits="userSpaceOnUse" gradientTransform="matrix(0.00102234, 6.10352e-005, -6.10352e-005, 0.000961304, 69.95, 36.7)" spreadMethod ="pad" cx="0" cy="0" r="819.2" fx="0" fy="0" >
<stop  offset="0.313725"  style="stop-color:#FFFFFF;stop-opacity:0.431373" />
<stop  offset="1"  style="stop-color:#FFFFFF;stop-opacity:0" />
</radialGradient>
<path style="fill:url(#RadialGradID_4114) " d="M69.15,36.4L69.3 36.25Q69.55 36 69.95 36.05L70.55 36.25L70.7 36.85L70.45 37.4L69.85 37.65Q69.5 37.6 69.25 37.3L69.15 37.2L69 36.75L69.15 36.4" />
<radialGradient
id="RadialGradID_4115" gradientUnits="userSpaceOnUse" gradientTransform="matrix(0.00610352, 0.00062561, -0.000259399, 0.00245667, 70.2, 38.45)" spreadMethod ="pad" cx="0" cy="0" r="819.2" fx="0" fy="0" >
<stop  offset="0"  style="stop-color:#CC8051;stop-opacity:1" />
<stop  offset="1"  style="stop-color:#F8BE98;stop-opacity:1" />
</radialGradient>
<path style="fill:url(#RadialGradID_4115) " d="M68.3,37.85L68.6 37.85Q68.95 37.85 69.25 38.15L69.5 38.35L69.5 38.45L69.1 38.35L68.65 38.15L68.25 37.9L68.3 37.85" />
<radialGradient
id="RadialGradID_4116" gradientUnits="userSpaceOnUse" gradientTransform="matrix(0.00341797, 0, 0, 0.00248718, 70.05, 38.35)" spreadMethod ="pad" cx="0" cy="0" r="819.2" fx="0" fy="0" >
<stop  offset="0"  style="stop-color:#CC8051;stop-opacity:1" />
<stop  offset="1"  style="stop-color:#F8BE98;stop-opacity:1" />
</radialGradient>
<path style="fill:url(#RadialGradID_4116) " d="M72.05,37.85L71.45 38.2L71 38.3L70.65 38.45L70.05 38.6L69.5 38.5L69.5 38.4L69.95 38.45L70.35 38.45L70.65 38.4Q70.7 38.3 70.85 38.25Q71.15 37.95 71.6 37.85L72.05 37.85" />
<radialGradient
id="RadialGradID_4117" gradientUnits="userSpaceOnUse" gradientTransform="matrix(0.00227356, 0, 0, 0.00317383, 71.2, 34.4)" spreadMethod ="pad" cx="0" cy="0" r="819.2" fx="210473" fy="0" >
<stop  offset="0.337255"  style="stop-color:#F9C29F;stop-opacity:1" />
<stop  offset="1"  style="stop-color:#FEDEC1;stop-opacity:0" />
</radialGradient>
<path style="fill:url(#RadialGradID_4117) " d="M71.15,32.65L72.95 34.85Q72.85 35.65 72.15 36.15L72.05 36.1Q71.2 35.1 71.2 32.8L71.15 32.65" />
</g>
</svg>
